public/partners/RS.svg

<svg width="410" height="410" viewBox="0 0 410 410" fill="none" xmlns="http://www.w3.org/2000/svg">
<g clip-path="url(#clip0_288_911)">
<path d="M0 0H410V410H0V0Z" fill="#B3C2FF"/>
<path d="M356.29 194.832C346.45 184.91 334.232 180.728 316.028 180.728H276.914C269.78 180.728 265.844 176.956 265.926 169.74V148.584C265.844 141.368 269.78 137.596 276.914 137.596H365.392V89.7081H271.994C237.39 89.3801 217.464 109.06 217.874 143.746V174.906C217.874 192.536 221.728 203.606 231.322 213.2C240.752 222.712 252.314 226.73 269.78 226.73H310.944C318.078 226.73 322.014 230.502 321.932 237.718V260.678C321.932 264.368 321.03 266.91 319.144 268.878C317.176 270.846 314.716 271.666 310.944 271.666H186.714L161.376 230.092C189.83 229.764 206.886 213.118 206.312 183.926V143.91C206.312 125.46 202.294 113.898 192.29 103.976C182.45 94.0541 170.478 89.7081 152.192 89.7081H46.248V319.39H94.792V137.596H147.272C150.962 137.596 153.504 138.498 155.472 140.384C157.44 142.352 158.26 144.812 158.26 148.584V177.858C158.342 185.074 154.406 188.846 147.272 188.846C132.184 189.174 117.424 186.058 108.568 200.244C101.926 210.576 104.304 225.254 110.7 235.422C117.506 247.558 154.488 313.322 154.488 313.322C156.702 317.258 160.802 319.472 165.804 319.472H316.11C350.796 319.964 370.558 299.956 370.23 265.352V234.848C370.312 216.398 366.212 204.754 356.29 194.832Z" fill="#010128"/>
</g>
<defs>
<clipPath id="clip0_288_911">
<rect width="410" height="410" fill="white"/>
</clipPath>
</defs>
</svg>

<?xml version="1.0"?>
<svg width="410" height="410" xmlns="http://www.w3.org/2000/svg" xmlns:svg="http://www.w3.org/2000/svg">
 <defs>
  <clipPath id="clip0_288_911">
   <rect fill="white" height="410" id="svg_1" width="410"/>
  </clipPath>
 </defs>
 <g class="layer">
  <title>Layer 1</title>
  <g clip-path="url(#clip0_288_911)" id="svg_2">
   <path d="m0,0l410,0l0,410l-410,0l0,-410z" fill="#e70000" id="svg_3"/>
   <path d="m356.29,194.83c-9.84,-9.92 -22.06,-14.1 -40.26,-14.1l-39.12,0c-7.13,0 -11.07,-3.77 -10.98,-10.99l0,-21.16c-0.09,-7.21 3.85,-10.98 10.98,-10.98l88.48,0l0,-47.89l-93.4,0c-34.6,-0.33 -54.53,19.35 -54.12,54.04l0,31.16c0,17.63 3.86,28.7 13.45,38.29c9.43,9.51 20.99,13.53 38.46,13.53l41.16,0c7.14,0 11.07,3.77 10.99,10.99l0,22.96c0,3.69 -0.9,6.23 -2.79,8.2c-1.96,1.97 -4.42,2.79 -8.2,2.79l-124.23,0l-25.33,-41.58c28.45,-0.33 45.51,-16.97 44.93,-46.16l0,-40.02c0,-18.45 -4.02,-30.01 -14.02,-39.93c-9.84,-9.93 -21.81,-14.27 -40.1,-14.27l-105.94,0l0,229.68l48.54,0l0,-181.79l52.48,0c3.69,0 6.23,0.9 8.2,2.78c1.97,1.97 2.79,4.43 2.79,8.2l0,29.28c0.08,7.21 -3.85,10.99 -10.99,10.99c-15.09,0.32 -29.85,-2.79 -38.7,11.39c-6.64,10.34 -4.27,25.01 2.13,35.18c6.81,12.14 43.79,77.9 43.79,77.9c2.21,3.94 6.31,6.15 11.31,6.15l150.31,0c34.69,0.49 54.45,-19.51 54.12,-54.12l0,-30.5c0.08,-18.45 -4.02,-30.1 -13.94,-40.02z" fill="#ffffff" id="svg_4" transform="matrix(1, 0, 0, 1, 0, 0)"/>
  </g>
 </g>
</svg>
